X:1
T:Au Privave
C:1951 - Charlie Parker
Z:www.realbook.site
L:1/8
M:4/4
I:linebreak $
K:F
V:1 treble nm=" " snm=" "
V:1
"F" FEF!>!C z2 A^G |"Gm7" AC z E-"C7" E=GFC |"F" GFAB AFG_E |"Cm7" z !>!d2 z"F7" _d3 F |$ %4
"Bb7" =B3 f z B _B2 | z2 z _A- AFGF |"F" !>!c2 z =A"Gm7" !>!B2 z G |"Am7" c2 c2"D7" z A Bc |$ %8
"Gm7" AGFE F2 z c |"Gm7" B2 z f-"C7" fcef |"F" z2 z c-"D7" c2 z A |"Gm7" BAFD"C7" A A3 |] %12

